assets/images/icons/step-02.svg

<svg width="57" height="56" viewBox="0 0 57 56" fill="none" xmlns="http://www.w3.org/2000/svg">
<g clip-path="url(#clip0_379_9085)">
<path d="M1.05718 40.5331C0.563572 36.3161 0.495006 32.178 1.10077 28.4341C1.84562 23.8305 3.79029 18.709 5.91479 14.1288C10.067 5.17719 17.5001 2.04549 26.5513 0.633614C39.1678 -1.33441 56.5568 0.633659 56.6667 15.9025C56.0337 21.3628 51.8571 36.5426 37.7581 37.7009C33.0965 38.0839 31.3525 42.7662 29.2987 48.1261C23.8942 62.2304 2.86422 55.9711 1.05718 40.5331Z" fill="#E0E9E6"/>
<path fill-rule="evenodd" clip-rule="evenodd" d="M23.7827 32.6345L31.9297 24.4862C32.4675 23.9483 33.342 23.9483 33.8799 24.4862C34.4177 25.0255 34.4177 25.8985 33.8799 26.4378L25.7329 34.5847L32.1283 46.6652C32.6441 47.6403 33.6937 48.214 34.7929 48.123C35.8935 48.032 36.8341 47.2941 37.1831 46.2459C39.6105 38.9651 45.6983 20.7003 47.9698 13.887C48.2994 12.8954 48.0415 11.803 47.3036 11.0638C46.5644 10.3245 45.4721 10.0666 44.4804 10.3976L12.1202 21.1844C11.0734 21.5333 10.3355 22.4726 10.2431 23.5732C10.152 24.6738 10.7258 25.722 11.7023 26.2392L23.7827 32.6345Z" fill="#7FB51F"/>
</g>
<defs>
<clipPath id="clip0_379_9085">
<rect width="56" height="56" fill="white" transform="translate(0.666656)"/>
</clipPath>
</defs>
</svg>

<svg xmlns="http://www.w3.org/2000/svg" width="57" height="56" fill="none"><g clip-path="url(#a)"><path fill="#E0E9E6" d="M1.057 40.533c-.493-4.217-.562-8.355.044-12.099.745-4.603 2.69-9.725 4.814-14.305C10.067 5.177 17.5 2.045 26.55.634c12.617-1.968 30.006 0 30.116 15.269-.633 5.46-4.81 20.64-18.909 21.798-4.662.383-6.406 5.065-8.46 10.425-5.404 14.104-26.434 7.845-28.24-7.593"/><path fill="#7FB51F" fill-rule="evenodd" d="m23.783 32.635 8.147-8.149a1.38 1.38 0 0 1 1.95 1.952l-8.147 8.147 6.395 12.08a2.758 2.758 0 0 0 5.055-.42c2.428-7.28 8.515-25.545 10.787-32.358a2.757 2.757 0 0 0-3.49-3.49L12.12 21.185a2.759 2.759 0 0 0-.418 5.055z" clip-rule="evenodd"/></g><defs><clipPath id="a"><path fill="#fff" d="M.667 0h56v56h-56z"/></clipPath></defs></svg>
